image/advantages-text1.svg

<svg fill="none" height="44" viewBox="0 0 167 44" width="167" xmlns="http://www.w3.org/2000/svg"><g fill="#1e1e1e"><path d="m3.05118 14.2651v4.8154c0 .2792-.32868.7346-.61974.8098-.2673.0693-1.59588.0634-1.8513-.0178-.36828-.1188-.5148009-.5128-.57024091-.8593l-.00989909-13.97287c.05346-.63756.3465-1.06722 1.02564-1.08702 4.19166.14652 8.50806-.1881 12.68386 0 1.7761.0792 5.0946.65538 5.946 2.4453.3465.72864.3009 3.10662.2395 3.98969-.2257 3.2234-3.8847 3.7521-6.4389 3.8788-3.1997.1545-6.79736.1743-10.00694.0673-.1386-.0039-.26334-.0633-.40194-.0653h.00198zm0-2.4829h11.22262c.8851-.0713 2.3938-.3069 2.6116-1.3622.103-.49897.0812-2.21959.0297-2.77003-.095-1.02168-1.9463-1.08504-2.7066-1.2078h-11.15732v5.34203z"/><path d="m116.551 10.7862h14.202c.105 0 .499.1881.594.2752.432.4019.329 1.6573-.156 2.0236-.058.0435-.331.1861-.374.1861h-14.203v2.8888c0 .0792.21.3861.279.4673.58.6811 2.127.8296 2.98.8712 3.594.1742 7.328-.1406 10.938.002 1.095.1306 1.089 2.3562-.054 2.4195-3.815-.1782-7.833.2277-11.626-.0039-2.06-.1248-5.263-.9861-5.501-3.4472-.271-2.8037.202-6.0351 0-8.88231.434-2.75814 3.883-3.53033 6.243-3.63725.99-.04356 2.455-.08316 3.424 0 .968.08316 1.073.84744.954 1.70478-.059.44352-.404.71675-.84.77615-1.615.21978-5.3-.42966-6.52.81379-.115.11681-.342.5049-.342.65142v2.88882h.002z"/><path d="m30.1515 10.7864h13.9848v-6.18159c0-.21384.4039-.50688.6078-.57222.5485-.17622 1.9978-.23562 2.2453.4554.1485 4.90248.0436 9.84651.0535 14.76291-.0475.2811-.2594.5643-.5425.6375-.2475.0634-1.4969.0674-1.7602.0159-.2277-.0456-.6059-.4237-.6059-.6376v-5.9954h-13.9848v5.9954c0 .2139-.3781.592-.6058.6376-.2654.0534-1.5682.0475-1.8098-.0277-.2653-.0832-.5088-.4198-.5544-.6891l-.0178-14.21242c.002-.37224.1683-.75835.5188-.90883.4613-.198 1.8374-.19998 2.2215.16434.0535.0495.2456.33859.2456.37621v6.1816z"/><path d="m144.958 11.7822c-.058 0-.111-.0257-.155-.0614-2.215-1.89283-4.724-3.75997-6.837-5.71819-.475-.43956-.974-.93258-.566-1.61766.198-.33066.636-.4059.996-.43362.471-.03762 1.208-.05346 1.608.198l7.094 5.89047.309-.18807 6.787-5.7024c.462-.27324 1.571-.26928 2.074-.10296.786.2574.772 1.10286.281 1.64934l-7.307 6.11619 7.461 6.334c.454.4059.636 1.1821.091 1.586-.459.3406-1.974.3346-2.477-.0099l-7.165-6.0746c-2.525 1.9919-4.939 4.1342-7.449 6.1479-.493.2554-1.438.2138-1.976.1069-.887-.1742-.856-1.1722-.327-1.7266 2.35-2.0829 4.948-3.9897 7.273-6.0865.047-.0435.303-.2772.281-.3069z"/><path d="m90.0564 3.97097c.7029-.10098 1.982-.14454 2.1245.76428v10.99295c.1446 1.6553 2.2711 1.6395 3.5145 1.7068 3.6215.196 7.2906-.0317 10.9256.0752 1.042.1743 1.014 2.3582-.107 2.4097-3.904-.1723-7.9911.2198-11.8739-.004-2.2671-.1307-5.2569-1.1761-5.443-3.8154-.2554-3.6591.198-7.61711.002-11.30783.0554-.49104.3781-.75438.8553-.8217z"/><path d="m65.6291 3.97113c.6614-.09702 1.9721-.15246 2.1127.7128l.0119 10.98307c.1465 1.7147 2.2215 1.6988 3.5125 1.7701 3.6214.196 7.2904-.0317 10.9256.0753.7683.1287.8099.9999.7247 1.6255-.0554.4099-.4019.792-.8316.7841-3.9045-.1703-7.9913.2198-11.874-.0039-2.3147-.1327-5.2451-1.2039-5.4431-3.8808-.2653-3.6096.204-7.54187.002-11.18309.0614-.5148.3445-.80982.8554-.88308z"/><path d="m55.3074 8.06573c.2099-.04752 1.2494-.0396 1.4316.03366.2732.11088.5959.6237.6316.9207l.0059 10.12171c-.0356.3545-.2831.7148-.6573.7723-.2673.0415-1.3346.0395-1.5821-.0258-.2851-.0732-.5128-.4059-.5524-.691l-.0039-10.05643c-.004-.36432.3742-.99396.7266-1.07514z"/><path d="m55.6222 3.97117c1.1524-.13662 2.5523.58608 2.0949 1.90872-.5247 1.52064-3.8392 1.3959-3.5759-.77814.0752-.62568.9088-1.06326 1.4791-1.13058z"/><path d="m164.815.545797c2.234 1.253343 2.026 4.480743-.241 5.599443-3.4 1.67706-7.269-1.9305-4.691-4.9599 1.182-1.387981 3.4-1.496883 4.93-.639543zm-.812.091082c-5.057-1.781999-6.167 6.033061-.776 5.460841 3.093-.32868 3.681-4.4352.776-5.460841z"/><path d="m162.691 1.33791c.277.01782.582.03168.837.23562.456.3663.452 1.56618-.229 1.71072.18.17622 1.009 1.94634 1.009 1.94634l-.615-.00792-.921-1.72062h-.768v1.7325l-.577-.00396v-3.8907c.016.01188.777-.03168 1.268 0zm.249.48114c-.287-.03762-.618-.01188-.938 0v1.20978c.219-.01188 1.085.06732 1.221-.23364.111-.2475.139-.9207-.283-.97614z"/><path d="m93.349 43.6684.0872-.2752c.1999-.0535.392-.0436.5959-.097.4-.105.503-.2812.6594-.6396.7009-2.568 1.6592-5.1876 2.2631-7.7735.0535-.2257.1644-.5841.0436-.79-.1901-.3247-.7505-.1485-1.0514-.1445l.0119-.2911 2.669-.4296-.4752 1.7008c.7722-.9742 2.3225-2.2552 3.6175-1.483 1.404.8355.843 3.0115.198 4.1738-1.059 1.9107-3.0611 3.5917-5.3302 2.471-.1544.7287-.4237 1.4296-.6039 2.1503-.0515.202-.1425.4851-.1148.6871.0673.4831.8237.4316 1.1801.4494l-.0575.2891h-3.6927zm6.888-9.7673c-.7816.0594-1.4746.8177-1.8924 1.4236-.8376 1.2157-1.0494 2.7106-1.4949 4.0907.2653.4059.8553.6078 1.3305.59 1.8588-.0713 3.3578-3.5878 3.0928-5.1698-.091-.5464-.442-.9821-1.036-.9365z"/><path d="m59.3149 29.7093-.7682 2.6552h-.299c.0812-.5979.2139-1.2593-.3029-1.7028-.4297-.3702-.9861-.3861-1.5266-.4059-.8672-.0317-1.7424.0258-2.6096.002l-1.1841 4.2095c.7841-.0376 1.683.099 2.4374-.1426.6158-.198.99-.8296 1.2593-1.38l.3128-.004-1.0692 3.8333h-.3425c.2079-.7108.2455-1.4929-.6336-1.685-.6752-.1485-1.4454-.0356-2.1344-.0693l-1.0891 3.8293c-.3801 1.0395.3466 1.0653 1.1465 1.1306l-.101.2891h-4.1105l.0891-.2851c.3722-.0377.7504-.0159 1.0613-.2495.3841-.2911.5682-1.0554.7088-1.5127.6475-2.0949 1.3148-4.362 1.8513-6.4826.0872-.3484.2733-.9919.1584-1.3246-.1544-.4494-.7741-.39-1.1602-.4118l.0871-.2891h8.2209z"/><path d="m88.504 29.7094-.0574.2891c-.5089.0218-1.0494.0059-1.4118.4197-.2495.2832-.39.8316-.5049 1.196-.7068 2.2413-1.386 4.649-1.9899 6.922-.1703.6416-.3762 1.093.5188 1.1544.7781.0534 2.0691.0237 2.7997-.2317 1.0276-.3603 1.489-1.2969 1.98-2.1879l.3128-.0039-1.0098 2.9997h-7.817l.0911-.2852c.3742-.0415.7306-.0099 1.0613-.2217.4415-.2832.6732-1.2217.8236-1.7147.6435-2.0929 1.3227-4.3639 1.8513-6.4825.0852-.3386.2673-.9643.0713-1.2672-.2198-.3406-.786-.2396-1.1306-.297l.0872-.2891h4.3263z"/><path d="m63.065 40.2665c.4574-1.7068 1.0217-3.3898 1.4632-5.0985.1564-.6039.4633-1.287-.497-1.2177-.2712.0198-.4653.204-.4356-.2336l2.6413-.4891-.9226 3.4313c.3405-.5068.7088-1.0098 1.0969-1.485.6237-.7623 1.584-1.881 2.6373-1.9483 1.394-.0891 1.1544 1.2652.895 2.1642-.3425 1.186-.8356 2.3661-1.1761 3.5541-.0574.2019-.2119.5385 0 .6811.1782.0535.4415-.2554.5564-.3841.1861-.2119.3247-.4614.5088-.6752l.2416.1564c-.4119.5703-1.1524 1.5999-1.8969 1.7088-1.0137.1484-.7979-.8198-.6336-1.4415.3129-1.1761.8059-2.3483 1.1524-3.5185.0752-.2554.2376-.7345.2218-.984-.0198-.3267-.3505-.3643-.6059-.293-1.1999.3405-2.9106 2.9442-3.4076 4.0629-.2871.6455-.4495 1.3385-.6593 2.0097h-1.1821z"/><path d="m77.3309 33.6414c.6712.6891.0792 1.7068-.5089 2.2255-1.1028.9722-2.7324 1.2811-4.152 1.4296-.0594.3881-.0951.7385.0138 1.1227.1624.5722.695 1.0395 1.2771 1.1464 1.1187.2059 2.085-.5663 2.9086-1.2019l.1842.2139c-.4.4554-.9247.885-1.4454 1.2078-1.1207.6949-2.8849 1.0969-3.8175-.101-1.4691-1.887.3505-4.8748 2.1266-5.8866.8573-.487 2.6334-.9603 3.4135-.1584zm-4.6035 3.3066c1.2414-.1485 2.7126-.5861 3.4392-1.681.8059-1.2118.0416-2.0909-1.2731-1.4454-.2198.1069-.4514.2732-.6376.4297-.8217.6791-1.2771 1.679-1.5285 2.6967z"/><path d="m108.526 33.2337.311-.0059-.466 2.3898-.301-.0237c-.019-.503-.107-1.0989-.429-1.5029-.879-1.0929-2.891-.2296-1.63 1.3405.832 1.0356 2.344 2.2513 1.602 3.766-.537 1.0949-1.774 1.3959-2.895 1.1622-.386-.0812-.936-.392-1.285-.1782-.194.1208-.172.3386-.509.2555l.466-2.5345.314-.0039c0 .6574.141 1.4949.723 1.8869.705.4752 1.98.3584 2.206-.588.299-1.2554-1.741-2.5047-2.043-3.7284-.371-1.4988 1.029-2.5324 2.425-2.1938.527.1287 1.133.6514 1.513-.0436z"/><path d="m62.3146 33.1999-1.8196 6.1578c.0851.6098.59.0733.7959-.1584.1822-.2059.3267-.4455.493-.6633.0594.0297.2792.1485.2673.2099-.4554.687-1.3741 1.7939-2.2888 1.6929-.8574-.0931-.5168-1.1088-.3683-1.6375.3306-1.1741.7603-2.3225 1.089-3.4967.0752-.2692.2475-.7939.2475-1.0533 0-.6118-.7841-.3604-1.1563-.3327l.0039-.2692 2.7364-.4515z"/><path d="m94.5885 33.1999-1.8196 6.1578c.0851.6098.59.0733.796-.1584.1821-.2059.3267-.4455.493-.6633.0594.0297.2792.1485.2673.2099-.4554.687-1.3741 1.7939-2.2889 1.6929-.8573-.0931-.5168-1.1088-.3683-1.6375.3307-1.1741.7603-2.3225 1.089-3.4967.0753-.2692.2475-.7939.2475-1.0533 0-.6118-.784-.3604-1.1563-.3327l.004-.2692 2.7363-.4515z"/><path d="m61.7878 30.1489c1.1722-.1703 1.2395 1.4098.3307 1.5424-1.1405.1663-1.2633-1.4078-.3307-1.5424z"/><path d="m94.0639 30.1489c1.1721-.1703 1.2394 1.4098.3306 1.5424-1.1405.1663-1.2632-1.4078-.3306-1.5424z"/></g></svg>

<svg width="167" height="44" viewBox="0 0 167 44" fill="none" xmlns="http://www.w3.org/2000/svg">
<path d="M3.05118 14.2651V19.0805C3.05118 19.3597 2.7225 19.8151 2.43144 19.8903C2.16414 19.9596 0.83556 19.9537 0.58014 19.8725C0.21186 19.7537 0.0653391 19.3597 0.00989909 19.0132L0 5.04033C0.05346 4.40277 0.3465 3.97311 1.02564 3.95331C5.2173 4.09983 9.5337 3.76521 13.7095 3.95331C15.4856 4.03251 18.8041 4.60869 19.6555 6.39861C20.002 7.12725 19.9564 9.50523 19.895 10.3883C19.6693 13.6117 16.0103 14.1404 13.4561 14.2671C10.2564 14.4216 6.65874 14.4414 3.44916 14.3344C3.31056 14.3305 3.18582 14.2711 3.04722 14.2691H3.0492L3.05118 14.2651ZM3.05118 11.7822H14.2738C15.1589 11.7109 16.6676 11.4753 16.8854 10.42C16.9884 9.92103 16.9666 8.20041 16.9151 7.64997C16.8201 6.62829 14.9688 6.56493 14.2085 6.44217H3.05118V11.7842V11.7822Z" fill="#1E1E1E"/>
<path d="M116.551 10.7862H130.753C130.858 10.7862 131.252 10.9743 131.347 11.0614C131.779 11.4633 131.676 12.7187 131.191 13.085C131.133 13.1285 130.86 13.2711 130.817 13.2711H116.614V16.1599C116.614 16.2391 116.824 16.546 116.893 16.6272C117.473 17.3083 119.02 17.4568 119.873 17.4984C123.467 17.6726 127.201 17.3578 130.811 17.5004C131.906 17.631 131.9 19.8566 130.757 19.9199C126.942 19.7417 122.924 20.1476 119.131 19.916C117.071 19.7912 113.868 18.9299 113.63 16.4688C113.359 13.6651 113.832 10.4337 113.63 7.58649C114.064 4.82835 117.513 4.05616 119.873 3.94924C120.863 3.90568 122.328 3.86608 123.297 3.94924C124.265 4.0324 124.37 4.79668 124.251 5.65402C124.192 6.09754 123.847 6.37077 123.411 6.43017C121.796 6.64995 118.111 6.00051 116.891 7.24396C116.776 7.36077 116.549 7.74886 116.549 7.89538V10.7842H116.551V10.7862Z" fill="#1E1E1E"/>
<path d="M30.1515 10.7864H44.1363V4.60481C44.1363 4.39097 44.5402 4.09793 44.7441 4.03259C45.2926 3.85637 46.7419 3.79697 46.9894 4.48799C47.1379 9.39047 47.033 14.3345 47.0429 19.2509C46.9954 19.532 46.7835 19.8152 46.5004 19.8884C46.2529 19.9518 45.0035 19.9558 44.7402 19.9043C44.5125 19.8587 44.1343 19.4806 44.1343 19.2667V13.2713H30.1495V19.2667C30.1495 19.4806 29.7714 19.8587 29.5437 19.9043C29.2783 19.9577 27.9755 19.9518 27.7339 19.8766C27.4686 19.7934 27.2251 19.4568 27.1795 19.1875L27.1617 4.97508C27.1637 4.60284 27.33 4.21673 27.6805 4.06625C28.1418 3.86825 29.5179 3.86627 29.902 4.23059C29.9555 4.28009 30.1476 4.56918 30.1476 4.6068V10.7884L30.1515 10.7864Z" fill="#1E1E1E"/>
<path d="M144.958 11.7822C144.9 11.7822 144.847 11.7565 144.803 11.7208C142.588 9.82797 140.079 7.96083 137.966 6.00261C137.491 5.56305 136.992 5.07003 137.4 4.38495C137.598 4.05429 138.036 3.97905 138.396 3.95133C138.867 3.91371 139.604 3.89787 140.004 4.14933L147.098 10.0398L147.407 9.85173L154.194 4.14933C154.656 3.87609 155.765 3.88005 156.268 4.04637C157.054 4.30377 157.04 5.14923 156.549 5.69571L149.242 11.8119L156.703 18.1459C157.157 18.5518 157.339 19.328 156.794 19.7319C156.335 20.0725 154.82 20.0665 154.317 19.722L147.152 13.6474C144.627 15.6393 142.213 17.7816 139.703 19.7953C139.21 20.0507 138.265 20.0091 137.727 19.9022C136.84 19.728 136.871 18.73 137.4 18.1756C139.75 16.0927 142.348 14.1859 144.673 12.0891C144.72 12.0456 144.976 11.8119 144.954 11.7822H144.958Z" fill="#1E1E1E"/>
<path d="M90.0564 3.97097C90.7593 3.86999 92.0384 3.82643 92.1809 4.73525V15.7282C92.3255 17.3835 94.452 17.3677 95.6954 17.435C99.3169 17.631 102.986 17.4033 106.621 17.5102C107.663 17.6845 107.635 19.8684 106.514 19.9199C102.61 19.7476 98.5229 20.1397 94.6401 19.9159C92.373 19.7852 89.3832 18.7398 89.1971 16.1005C88.9417 12.4414 89.3951 8.48339 89.1991 4.79267C89.2545 4.30163 89.5772 4.03829 90.0544 3.97097H90.0564Z" fill="#1E1E1E"/>
<path d="M65.6291 3.97113C66.2905 3.87411 67.6012 3.81867 67.7418 4.68393L67.7537 15.667C67.9002 17.3817 69.9752 17.3658 71.2662 17.4371C74.8876 17.6331 78.5566 17.4054 82.1918 17.5124C82.9601 17.6411 83.0017 18.5123 82.9165 19.1379C82.8611 19.5478 82.5146 19.9299 82.0849 19.922C78.1804 19.7517 74.0936 20.1418 70.2109 19.9181C67.8962 19.7854 64.9658 18.7142 64.7678 16.0373C64.5025 12.4277 64.9718 8.49543 64.7698 4.85421C64.8312 4.33941 65.1143 4.04439 65.6252 3.97113H65.6291Z" fill="#1E1E1E"/>
<path d="M55.3074 8.06573C55.5173 8.01821 56.5568 8.02613 56.739 8.09939C57.0122 8.21027 57.3349 8.72309 57.3706 9.02009L57.3765 19.1418C57.3409 19.4963 57.0934 19.8566 56.7192 19.9141C56.4519 19.9556 55.3846 19.9536 55.1371 19.8883C54.852 19.8151 54.6243 19.4824 54.5847 19.1973L54.5808 9.14087C54.5768 8.77655 54.955 8.14691 55.3074 8.06573Z" fill="#1E1E1E"/>
<path d="M55.6222 3.97117C56.7746 3.83455 58.1745 4.55725 57.7171 5.87989C57.1924 7.40053 53.8779 7.27579 54.1412 5.10175C54.2164 4.47607 55.05 4.03849 55.6203 3.97117H55.6222Z" fill="#1E1E1E"/>
<path d="M164.815 0.545797C167.049 1.79914 166.841 5.02654 164.574 6.14524C161.174 7.8223 157.305 4.21474 159.883 1.18534C161.065 -0.202641 163.283 -0.311543 164.813 0.545797H164.815ZM164.003 0.636879C158.946 -1.14512 157.836 6.66994 163.227 6.09772C166.32 5.76904 166.908 1.66252 164.003 0.636879Z" fill="#1E1E1E"/>
<path d="M162.691 1.33791C162.968 1.35573 163.273 1.36959 163.528 1.57353C163.984 1.93983 163.98 3.13971 163.299 3.28425C163.479 3.46047 164.308 5.23059 164.308 5.23059L163.693 5.22267L162.772 3.50205H162.004V5.23455L161.427 5.23059V1.33989C161.443 1.35177 162.204 1.30821 162.695 1.33989L162.691 1.33791ZM162.94 1.81905C162.653 1.78143 162.322 1.80717 162.002 1.81905V3.02883C162.221 3.01695 163.087 3.09615 163.223 2.79519C163.334 2.54769 163.362 1.87449 162.94 1.81905Z" fill="#1E1E1E"/>
<path d="M93.349 43.6684L93.4362 43.3932C93.6361 43.3397 93.8282 43.3496 94.0321 43.2962C94.4321 43.1912 94.5351 43.015 94.6915 42.6566C95.3924 40.0886 96.3507 37.469 96.9546 34.8831C97.0081 34.6574 97.119 34.299 96.9982 34.0931C96.8081 33.7684 96.2477 33.9446 95.9468 33.9486L95.9587 33.6575L98.6277 33.2279L98.1525 34.9287C98.9247 33.9545 100.475 32.6735 101.77 33.4457C103.174 34.2812 102.613 36.4572 101.968 37.6195C100.909 39.5302 98.9069 41.2112 96.6378 40.0905C96.4834 40.8192 96.2141 41.5201 96.0339 42.2408C95.9824 42.4428 95.8914 42.7259 95.9191 42.9279C95.9864 43.411 96.7428 43.3595 97.0992 43.3773L97.0417 43.6664H93.349V43.6684ZM100.237 33.9011C99.4554 33.9605 98.7624 34.7188 98.3446 35.3247C97.507 36.5404 97.2952 38.0353 96.8497 39.4154C97.115 39.8213 97.705 40.0232 98.1802 40.0054C100.039 39.9341 101.538 36.4176 101.273 34.8356C101.182 34.2892 100.831 33.8535 100.237 33.8991V33.9011Z" fill="#1E1E1E"/>
<path d="M59.3149 29.7093L58.5467 32.3645H58.2477C58.3289 31.7666 58.4616 31.1052 57.9448 30.6617C57.5151 30.2915 56.9587 30.2756 56.4182 30.2558C55.551 30.2241 54.6758 30.2816 53.8086 30.2578L52.6245 34.4673C53.4086 34.4297 54.3075 34.5663 55.0619 34.3247C55.6777 34.1267 56.0519 33.4951 56.3212 32.9447L56.634 32.9407L55.5648 36.774H55.2223C55.4302 36.0632 55.4678 35.2811 54.5887 35.089C53.9135 34.9405 53.1433 35.0534 52.4543 35.0197L51.3652 38.849C50.9851 39.8885 51.7118 39.9143 52.5117 39.9796L52.4107 40.2687H48.3002L48.3893 39.9836C48.7615 39.9459 49.1397 39.9677 49.4506 39.7341C49.8347 39.443 50.0188 38.6787 50.1594 38.2214C50.8069 36.1265 51.4742 33.8594 52.0107 31.7388C52.0979 31.3904 52.284 30.7469 52.1691 30.4142C52.0147 29.9648 51.395 30.0242 51.0089 30.0024L51.096 29.7133H59.3169L59.3149 29.7093Z" fill="#1E1E1E"/>
<path d="M88.504 29.7094L88.4466 29.9985C87.9377 30.0203 87.3972 30.0044 87.0348 30.4182C86.7853 30.7014 86.6448 31.2498 86.5299 31.6142C85.8231 33.8555 85.1439 36.2632 84.54 38.5362C84.3697 39.1778 84.1638 39.6292 85.0588 39.6906C85.8369 39.744 87.1279 39.7143 87.8585 39.4589C88.8861 39.0986 89.3475 38.162 89.8385 37.271L90.1513 37.2671L89.1415 40.2668H81.3245L81.4156 39.9816C81.7898 39.9401 82.1462 39.9717 82.4769 39.7599C82.9184 39.4767 83.1501 38.5382 83.3005 38.0452C83.944 35.9523 84.6232 33.6813 85.1518 31.5627C85.237 31.2241 85.4191 30.5984 85.2231 30.2955C85.0033 29.9549 84.4371 30.0559 84.0925 29.9985L84.1797 29.7094H88.506H88.504Z" fill="#1E1E1E"/>
<path d="M63.065 40.2665C63.5224 38.5597 64.0867 36.8767 64.5282 35.168C64.6846 34.5641 64.9915 33.881 64.0312 33.9503C63.76 33.9701 63.5659 34.1543 63.5956 33.7167L66.2369 33.2276L65.3143 36.6589C65.6548 36.1521 66.0231 35.6491 66.4112 35.1739C67.0349 34.4116 67.9952 33.2929 69.0485 33.2256C70.4425 33.1365 70.2029 34.4908 69.9435 35.3898C69.601 36.5758 69.1079 37.7559 68.7674 38.9439C68.71 39.1458 68.5555 39.4824 68.7674 39.625C68.9456 39.6785 69.2089 39.3696 69.3238 39.2409C69.5099 39.029 69.6485 38.7795 69.8326 38.5657L70.0742 38.7221C69.6623 39.2924 68.9218 40.322 68.1773 40.4309C67.1636 40.5793 67.3794 39.6111 67.5437 38.9894C67.8566 37.8133 68.3496 36.6411 68.6961 35.4709C68.7713 35.2155 68.9337 34.7364 68.9179 34.4869C68.8981 34.1602 68.5674 34.1226 68.312 34.1939C67.1121 34.5344 65.4014 37.1381 64.9044 38.2568C64.6173 38.9023 64.4549 39.5953 64.2451 40.2665H63.063H63.065Z" fill="#1E1E1E"/>
<path d="M77.3309 33.6414C78.0021 34.3305 77.4101 35.3482 76.822 35.8669C75.7192 36.8391 74.0896 37.148 72.67 37.2965C72.6106 37.6846 72.5749 38.035 72.6838 38.4192C72.8462 38.9914 73.3788 39.4587 73.9609 39.5656C75.0796 39.7715 76.0459 38.9993 76.8695 38.3637L77.0537 38.5776C76.6537 39.033 76.129 39.4626 75.6083 39.7854C74.4876 40.4803 72.7234 40.8823 71.7908 39.6844C70.3217 37.7974 72.1413 34.8096 73.9174 33.7978C74.7747 33.3108 76.5508 32.8375 77.3309 33.6394V33.6414ZM72.7274 36.948C73.9688 36.7995 75.44 36.3619 76.1666 35.267C76.9725 34.0552 76.2082 33.1761 74.8935 33.8216C74.6737 33.9285 74.4421 34.0948 74.2559 34.2513C73.4342 34.9304 72.9788 35.9303 72.7274 36.948Z" fill="#1E1E1E"/>
<path d="M108.526 33.2337L108.837 33.2278L108.371 35.6176L108.07 35.5939C108.051 35.0909 107.963 34.495 107.641 34.091C106.762 32.9981 104.75 33.8614 106.011 35.4315C106.843 36.4671 108.355 37.6828 107.613 39.1975C107.076 40.2924 105.839 40.5934 104.718 40.3597C104.332 40.2785 103.782 39.9677 103.433 40.1815C103.239 40.3023 103.261 40.5201 102.924 40.437L103.39 37.9025L103.704 37.8986C103.704 38.556 103.845 39.3935 104.427 39.7855C105.132 40.2607 106.407 40.1439 106.633 39.1975C106.932 37.9421 104.892 36.6928 104.59 35.4691C104.219 33.9703 105.619 32.9367 107.015 33.2753C107.542 33.404 108.148 33.9267 108.528 33.2317L108.526 33.2337Z" fill="#1E1E1E"/>
<path d="M62.3146 33.1999L60.495 39.3577C60.5801 39.9675 61.085 39.431 61.2909 39.1993C61.4731 38.9934 61.6176 38.7538 61.7839 38.536C61.8433 38.5657 62.0631 38.6845 62.0512 38.7459C61.5958 39.4329 60.6771 40.5398 59.7624 40.4388C58.905 40.3457 59.2456 39.33 59.3941 38.8013C59.7247 37.6272 60.1544 36.4788 60.4831 35.3046C60.5583 35.0354 60.7306 34.5107 60.7306 34.2513C60.7306 33.6395 59.9465 33.8909 59.5743 33.9186L59.5782 33.6494L62.3146 33.1979V33.1999Z" fill="#1E1E1E"/>
<path d="M94.5885 33.1999L92.7689 39.3577C92.854 39.9675 93.3589 39.431 93.5649 39.1993C93.747 38.9934 93.8916 38.7538 94.0579 38.536C94.1173 38.5657 94.3371 38.6845 94.3252 38.7459C93.8698 39.4329 92.9511 40.5398 92.0363 40.4388C91.179 40.3457 91.5195 39.33 91.668 38.8013C91.9987 37.6272 92.4283 36.4788 92.757 35.3046C92.8323 35.0354 93.0045 34.5107 93.0045 34.2513C93.0045 33.6395 92.2205 33.8909 91.8482 33.9186L91.8522 33.6494L94.5885 33.1979V33.1999Z" fill="#1E1E1E"/>
<path d="M61.7878 30.1489C62.96 29.9786 63.0273 31.5587 62.1185 31.6913C60.978 31.8576 60.8552 30.2835 61.7878 30.1489Z" fill="#1E1E1E"/>
<path d="M94.0639 30.1489C95.236 29.9786 95.3033 31.5587 94.3945 31.6913C93.254 31.8576 93.1313 30.2835 94.0639 30.1489Z" fill="#1E1E1E"/>
</svg>
